X: 28666
T: Musical Priest, The
R: reel
M: 4/4
K: Aminor
L: 1/8
K: Amin
|:AG|EAAG A2 Ac|BAGe dBAG|EAAG A2 Ac|BAGB A2 AB:|
|:c2 cB cedc|BAG dG eG dG|cBAB cdea|gedB A2 AB:|
|:cA A2 agea|gedB GABd|cBAB cdea|gedB A2:|

